svgs/sharp-light/message-question.svg

<svg xmlns="http://www.w3.org/2000/svg" viewBox="0 0 512 512"><!--! Font Awesome Pro 6.6.0 by @fontawesome - https://fontawesome.com License - https://fontawesome.com/license (Commercial License) Copyright 2024 Fonticons, Inc. --><path d="M160 416l-32 0-96 0L0 416l0-32L0 32 0 0 32 0 480 0l32 0 0 32 0 352 0 32-32 0-176 0L192 490.7 160 512l0-38.5 0-25.5 0-32zm0-32l32 0 0 32 0 36.2 94.2-62.8 8.1-5.4 9.7 0 176 0 0-352L32 32l0 352 128 0zm8-248c0-30.9 25.1-56 56-56l56 0c35.5 0 64 29 64 64.3c0 24-13.4 46.2-34.9 57.2L272 220.3l0 3.7 0 16-32 0 0-16 0-13.5 0-9.8 8.7-4.5 45.8-23.4c10.7-5.4 17.5-16.6 17.5-28.7c0-17.8-14.4-32.3-32-32.3l-56 0c-13.3 0-24 10.7-24 24l0 8-32 0 0-8zm64 136l48 0 0 48-48 0 0-48z"/></svg>

<svg xmlns="http://www.w3.org/2000/svg" viewBox="0 0 512 512"><!--! Font Awesome Pro 6.4.2 by @fontawesome - https://fontawesome.com License - https://fontawesome.com/license (Commercial License) Copyright 2023 Fonticons, Inc. --><path d="M160 416H128 32 0V384 32 0H32 480h32V32 384v32H480 304L192 490.7 160 512V473.5 448 416zm0-32h32v32 36.2l94.2-62.8 8.1-5.4H304 480V32H32V384H160zm8-248c0-30.9 25.1-56 56-56h56c35.5 0 64 29 64 64.3c0 24-13.4 46.2-34.9 57.2L272 220.3V224v16H240V224 210.5v-9.8l8.7-4.5 45.8-23.4c10.7-5.4 17.5-16.6 17.5-28.7c0-17.8-14.4-32.3-32-32.3H224c-13.3 0-24 10.7-24 24v8H168v-8zm64 136h48v48H232V272z"/></svg>
